X:41
T:Bridgeford
T:C M
S:John Moore's Book 3
Z:Transcribed by Edmund Spriggs 05/2021
%%VWML: Moore1-4495-p32-0
F:https://www.vwml.org/record/Moore3/4495/p32
N:The manuscript lacks a time signature.
N:The last note of the ninth bar in the second part should be a dotted minim.
M:
L:1/4
V:1 clef=treble
V:2 clef=bass
K:Eb
[V:1]B|e2B2|c2(Ac)|(BA)(GF)|E3G|
[V:2]E,|E,2G,2|A,2CA,|B,2B,,2|E,3E,|
[V:1]"_P"FGAF|G3"_F"B|e2d2|ecB=A|B3|]
[V:2]D,E,F,D,|E,3E,|G,2F,2|E,2F,2|B,,2|]
[V:1]B|cABG|AFGB|"_P"EFGE|GABc|
[V:2]G,|A,F,G,E,|F,B,,E,z1|z4|z4|
[V:1]BAGe|dcB!fermata!B|"_F"g2f2|ecBe|e2d2|e3|]
[V:2]z4|z4|z4|z1A,G,A,|A,2B,,2|E,3|]

